package/converter/svg/duotone/align-slash.svg

<svg xmlns="http://www.w3.org/2000/svg" viewBox="0 0 640 512"><!-- Font Awesome Pro 6.0.0-alpha2 by @fontawesome - https://fontawesome.com License - https://fontawesome.com/license (Commercial License) --><defs><style>.fa-secondary{opacity:.4}</style></defs><path d="M128 224H162.486L101.021 175.824C98.119 180.641 96 185.967 96 192C96 209.674 110.326 224 128 224ZM512 96C529.674 96 544 81.674 544 64S529.674 32 512 32H128C114.629 32 103.232 40.223 98.447 51.869L154.752 96H512ZM128 352H325.799L244.143 288H128C110.326 288 96 302.326 96 320S110.326 352 128 352ZM512 160H236.408L318.064 224H512C529.674 224 544 209.674 544 192S529.674 160 512 160ZM128 416C110.326 416 96 430.326 96 448S110.326 480 128 480H489.111L407.455 416H128ZM512 288H399.721L481.375 352H512C529.674 352 544 337.674 544 320S529.674 288 512 288Z" class="fa-secondary"/><path d="M601.187 506.874L9.187 42.879C-1.235 34.723 -3.063 19.63 5.109 9.192C13.296 -1.214 28.343 -3.089 38.812 5.13L630.812 469.124C641.234 477.28 643.062 492.374 634.89 502.811C626.706 513.236 611.599 515.071 601.187 506.874Z" class="fa-primary"/></svg>

<svg xmlns="http://www.w3.org/2000/svg" viewBox="0 0 640 512"><!--! Font Awesome Pro 6.6.0 by @fontawesome - https://fontawesome.com License - https://fontawesome.com/license (Commercial License) Copyright 2024 Fonticons, Inc. --><defs><style>.fa-secondary{opacity:.4}</style></defs><path class="fa-secondary" d="M96 192c0 17.7 14.3 32 32 32l34.5 0-61.8-48.7c-3 4.9-4.7 10.6-4.7 16.7zm0 128c0 17.7 14.3 32 32 32l196.9 0-81.2-64L128 288c-17.7 0-32 14.3-32 32zm0 128c0 17.7 14.3 32 32 32l359.4 0-81.2-64L128 416c-17.7 0-32 14.3-32 32zM98.4 51.8C117.2 66.5 136 81.3 154.8 96L512 96c17.7 0 32-14.3 32-32s-14.3-32-32-32L128 32c-13.4 0-24.8 8.2-29.6 19.8zM236.4 160c27.2 21.3 54.4 42.7 81.7 64L512 224c17.7 0 32-14.3 32-32s-14.3-32-32-32l-275.6 0zM399.7 288c27.2 21.3 54.4 42.7 81.7 64l30.6 0c17.7 0 32-14.3 32-32s-14.3-32-32-32l-112.3 0z"/><path class="fa-primary" d="M5.1 9.2C13.3-1.2 28.4-3.1 38.8 5.1l592 464c10.4 8.2 12.3 23.3 4.1 33.7s-23.3 12.3-33.7 4.1L9.2 42.9C-1.2 34.7-3.1 19.6 5.1 9.2z"/></svg>
